X:804
T:Prince Charlie
R:Reel
B:The Athole Collection
M:C|
L:1/8
K:E Minor
F|E2 EF B2 B^c|d2 AG FDDF|1 E2 DF B2 B^c|dBAF GEE:|2
EFGA B2 Ba|gef^d e/e/e e||B|eBef geBg|fbag fddf|eBef geBg|
bgaf e/e/e eB|eBef geBg|fdAG FEDf|geBg AfGe|FdAF E/E/E E||

